<?xml version="1.0" encoding="UTF-8"?>
<map version="1.10" tiledversion="1.12.2" orientation="orthogonal" renderorder="right-down" width="50" height="20" tilewidth="16" tileheight="16" infinite="0" nextlayerid="5" nextobjectid="1">
 <tileset firstgid="1" source="tileset.tsx"/>
 <layer id="4" name="圖塊層 2" width="50" height="20">
  <data encoding="csv">
0,0,0,0,0,0,0,0,0,0,0,0,0,0,0,0,0,0,0,0,0,640,641,642,0,0,0,0,0,0,0,0,0,0,0,0,0,0,0,0,0,0,0,0,0,0,0,0,0,0,
0,0,0,0,0,0,0,0,0,0,0,0,0,0,0,0,0,0,0,0,0,683,684,685,0,0,0,0,0,0,0,0,0,0,0,640,641,642,0,0,0,0,0,0,0,0,0,0,0,0,
0,0,0,0,0,0,0,0,0,0,0,0,0,0,0,0,0,0,0,0,0,0,0,0,0,0,0,0,0,0,0,0,0,0,0,683,684,685,0,0,0,0,0,0,0,0,0,0,0,0,
0,0,0,0,0,0,0,0,0,0,0,0,0,0,0,0,0,0,0,0,0,0,0,0,0,0,0,640,641,642,0,0,0,0,0,0,0,0,0,0,0,0,0,0,0,0,640,641,642,0,
0,0,0,0,640,641,642,0,0,0,0,0,0,0,0,0,0,0,0,0,0,0,0,0,0,0,0,683,684,685,0,0,0,0,0,0,0,0,0,0,0,0,0,0,0,0,683,684,685,0,
0,0,0,0,683,684,685,0,0,0,0,0,0,0,0,0,0,0,0,0,0,0,0,0,0,0,0,0,0,0,0,0,0,0,0,0,0,0,0,0,0,0,0,0,0,0,0,0,0,0,
0,0,0,0,0,0,0,0,0,0,0,640,641,642,0,0,0,0,0,0,640,641,642,0,0,0,0,0,0,0,0,0,0,0,0,0,640,641,642,0,0,0,0,0,0,0,0,0,0,0,
0,0,0,0,0,0,0,0,0,0,0,683,684,685,0,0,0,0,0,0,683,684,685,0,0,0,0,0,0,0,0,0,0,0,0,0,683,684,685,0,0,0,0,0,0,0,0,640,641,642,
0,0,0,640,641,642,0,0,0,0,0,0,0,0,0,0,0,0,0,0,0,0,0,0,0,0,0,0,0,0,0,0,0,0,0,0,0,0,0,0,0,0,0,0,0,0,0,683,684,685,
0,0,0,683,684,685,0,0,0,0,0,0,0,0,0,0,0,0,0,0,0,0,0,0,0,0,0,0,0,0,0,0,0,0,0,0,0,0,0,0,0,0,0,0,0,0,0,0,0,0,
0,0,0,0,0,0,0,0,0,0,0,0,0,0,0,0,0,0,0,0,0,0,0,0,0,0,0,0,0,0,0,0,0,0,0,0,0,0,0,0,0,0,0,0,0,0,0,0,0,0,
0,0,0,0,0,0,640,641,642,0,0,0,0,0,0,0,0,0,0,0,0,0,0,0,0,0,0,0,0,0,0,0,0,0,0,0,0,0,0,0,0,0,0,0,0,0,0,0,0,0,
0,0,0,0,0,0,683,684,685,0,0,0,0,0,0,0,0,0,0,0,0,0,0,0,0,0,0,0,0,0,0,0,0,0,0,0,0,0,0,0,0,0,0,0,0,0,0,0,0,0,
0,0,0,0,0,0,0,0,0,0,0,0,0,0,0,0,0,0,0,0,0,0,0,0,0,0,0,0,0,0,0,0,0,0,0,0,0,0,0,0,0,0,0,0,0,0,0,0,0,0,
0,0,0,0,0,0,0,0,0,0,0,0,0,0,0,0,0,0,0,0,0,0,0,0,0,0,0,0,0,0,0,0,0,0,0,0,0,0,0,0,0,0,0,0,0,0,0,0,0,0,
0,0,0,0,0,0,0,0,0,0,0,0,0,0,0,0,0,0,844,845,845,846,0,0,0,0,0,0,0,0,0,0,0,0,0,0,0,0,0,0,0,0,0,0,0,0,0,844,845,845,
0,0,0,0,0,0,0,0,0,0,0,0,0,0,0,0,0,0,887,754,754,889,0,0,0,0,0,0,0,0,0,0,0,0,0,0,0,0,0,0,0,844,846,0,0,0,0,930,931,931,
845,845,845,845,845,845,845,845,845,846,0,0,0,0,844,845,845,845,839,754,754,889,0,0,0,844,845,845,845,845,845,845,845,845,845,845,845,846,0,0,0,930,932,0,0,0,0,0,0,0,
754,754,754,754,754,754,754,754,754,889,0,0,0,0,887,754,754,754,754,754,754,889,0,0,0,887,754,754,754,754,754,754,754,754,754,754,754,889,0,0,0,0,0,0,0,0,0,0,0,0,
754,754,754,754,754,754,754,754,754,889,0,0,0,0,887,754,754,754,754,754,754,889,0,0,0,887,754,754,754,754,754,754,754,754,754,754,754,889,0,0,0,0,0,0,0,0,0,0,0,0
</data>
 </layer>
 <objectgroup id="2" name="物件層 1"/>
</map>
